X: 133
T: Cheshire Round
M:3/2
L:1/4
S: 8: MCJLSH3 http://www.cpartington.plus.com/links/Walsh.abc
Z: Pete Stewart 2004
B: Walsh "Third Book of the most Celebrated jiggs, Lancashire hornpipes, ..."
K:C
c2B2A2 | Ad2AB/c/d/B/ | c2B2A2 | Gc2AB/c/d/B/ ||
eg2BA2 | Aa2AB/c/d/B/ | dgBgA2 | Gc2AB/c/d/B/ ||
c/d/ e/c/ B/c/ d/B/ A/B/c/A/ | Ad2AB/c/d/B/ | cg2BA/B/c/A/ | Gc2AB/c/d/B/ ||

%%sep 1 1 500
%%sep 1 1 500
